X: 186
T: Systerpolska 2
O: Dalarna, Ore
S: efter [[!Timas Hans Hansson]]
R: Polska
Z: Håkan Lidén, 2008-09-27
M: 3/4
L: 1/8
K: Gm
D | G>B d>c B/c/B/A/ | G>B d^c/d/ g2 | f>e dc BA/B/ | c/d/c/B/ G^F D2 | 
G>B d>c B/c/B/A/ | G>B d^c/d/ g2 | f>e dc BA/B/ | c^F G3 :|
|: A | B>c BA/B/ g>g | f/g/f/d/ e2 c>A | F2 FA/c/ fg/f/ | ed/c/ d3 A | 
B2 AG/^F/ G>A | BA/G/ G/^F/A/F/ D>g | ^fg d>c Ac | B/A/G/^F/ G3 :|

